X:522
%Fil: 11_MG_0527.pdf
T:Polska efter Wesslén
O:Uppland
R:Polska
N:Ur en notbok som gått i arv i släkten Wesslén ([[Personer/Mats Wesslén]] är organisten i Överlövsta socken som tecknade ned många låtar efter [[Personer/Byss-Kalle]]). Ref. [[Personer/Per-Ulf Allmo]]
N:Basackompanjemanget i originalnoterna är utelämnat i denna transkription.
N:Förstareprisen påminner en aning om Luigi Boccherinis Menuett - stråkkvintett op. 13:5.
Z:Nils L
M:3/4
L:1/16
K:C
g2z^f g2zc e2zg | g2zf d4>e4 | f2ze f2zG B2zd | d2zc c4 (e2g2) |
c'2zb c'2zc e2zg | (g2f2) f4 a4 | (g2e2) c4 e4 | e2d2 d2f2 B2d2 |
d2c2 c4 z4 :: G2ce g2ec G2ce | [e3g3][fd] [d2B2][B2d2] [f4d4] | G2Bd f2dB G2Bd |
[f3B3]e c2c2 e4 | G2ce g2ec Gceg | c'bc'a f4 [a4f4] | {/a}g^fge c4 [e4c4] |
agfe d2f2 B2d2 | edcB c4 x4 :|
(:musicend:)

(:music:)
